_inc/systems/logos/snes.svg

<?xml version="1.0" encoding="utf-8"?>
<svg version="1.2" baseProfile="tiny" id="Ebene_1" x="0px" y="0px" viewBox="0 0 264 65" xmlns="http://www.w3.org/2000/svg">
  <g transform="matrix(0.44, 0, 0, 0.439647, 0, 0)">
    <path id="polyline2177" d="M 29.219 0 C 23.576 0 18.087 4.642 17.081 10.39 L 13.064 30.349 C 12.958 32.863 13.31 36.295 14.094 36.935 C 15.092 42.472 33.554 68.112 33.023 72.015 C 32.527 75.93 30.349 87.45 30.349 87.45 C 29.679 91.331 27.029 94.441 23.15 94.441 C 19.265 94.441 16.615 91.343 17.285 87.45 L 20.782 68.314 L 6.995 68.314 L 2.365 94.859 C 1.421 100.246 5.072 104.527 10.492 104.527 L 30.144 104.527 C 35.589 104.527 40.771 100.246 41.769 94.859 C 41.769 94.859 46.831 70.065 46.807 68.314 C 46.789 66.55 46.297 66.358 46.297 66.358 C 46.297 64.342 29.868 37.22 28.188 36.21 C 27.467 35.79 26.872 33.104 26.848 31.481 C 26.818 29.868 29.012 19.031 29.012 19.031 C 29.679 15.149 33.356 12.036 37.241 12.036 C 41.123 12.036 42.745 15.149 42.075 19.031 L 39.095 36.21 L 52.982 36.21 L 57.819 10.387 C 58.913 4.642 55.232 0 49.59 0 L 29.219 0 Z M 67.079 0 L 50.62 94.862 C 49.677 100.249 53.324 104.53 58.747 104.53 L 78.4 104.53 C 83.841 104.53 89.12 100.249 90.127 94.862 L 107.718 0 L 95.372 0 L 78.601 92.185 C 78.358 93.525 77.057 94.654 75.723 94.654 L 65.946 94.654 C 64.579 94.654 63.666 93.534 63.888 92.185 L 80.248 0 L 67.079 0 Z M 114.406 0 L 94.549 104.53 L 107.718 104.53 L 116.774 57.203 L 133.542 57.203 C 138.998 57.203 144.169 52.889 145.166 47.531 L 152.368 10.39 C 153.456 4.63 149.784 0 144.142 0 L 127.575 0 L 114.406 0 Z M 161.424 0 L 140.849 104.53 L 170.479 104.53 L 172.534 91.566 L 157.926 91.566 L 163.896 56.278 L 178.504 56.278 L 180.56 45.371 L 165.955 45.371 L 172.435 12.964 L 187.046 12.964 L 189.098 0 L 161.424 0 Z M 196.817 0 L 177.065 104.53 L 190.234 104.53 L 199.185 57.203 L 208.55 57.203 C 209.778 58.351 209.926 60.463 210.088 61.524 C 210.331 63.062 210.59 65.027 210.4 66.565 C 210.229 68.091 203.196 104.527 203.196 104.527 L 216.367 104.527 C 216.367 104.527 223.774 64.835 223.774 64.198 C 223.798 63.549 223.774 61.515 223.058 60.391 C 222.575 59.67 221.745 58.014 220.79 57.41 C 218.951 56.23 216.878 55.451 216.878 55.451 L 215.95 55.451 C 219.72 53.967 226.823 51.521 227.58 47.531 L 234.779 10.39 C 235.873 4.63 232.195 0 226.55 0 L 196.817 0 Z M 267.294 0 L 247.434 104.53 L 262.559 104.53 L 274.799 43.932 L 279.637 104.53 L 292.808 104.53 L 312.665 0 L 297.54 0 L 287.253 54.631 L 280.46 0 L 267.294 0 Z M 319.555 0 L 299.701 104.53 L 312.87 104.53 L 332.723 0 L 319.555 0 Z M 339.613 0 L 319.759 104.53 L 334.989 104.53 L 347.232 43.932 L 352.066 104.53 L 365.238 104.53 L 385.092 0 L 369.865 0 L 359.68 54.631 L 352.89 0 L 339.613 0 Z M 390.65 0 L 388.178 12.964 L 396.407 12.964 L 380.153 104.53 L 395.175 104.53 L 411.739 12.964 L 419.659 12.964 L 421.717 0 L 390.65 0 Z M 426.864 0 L 406.289 104.53 L 435.917 104.53 L 437.975 91.566 L 423.367 91.566 L 429.439 56.278 L 444.044 56.278 L 446.105 45.371 L 431.494 45.371 L 437.87 12.964 L 452.48 12.964 L 454.539 0 L 426.864 0 Z M 460.301 0 L 440.444 104.53 L 455.668 104.53 L 467.915 43.932 L 472.752 104.53 L 485.921 104.53 L 505.778 0 L 490.551 0 L 480.362 54.631 L 473.572 0 L 460.301 0 Z M 512.673 0 L 492.81 104.53 L 522.852 104.53 C 528.309 104.53 533.572 100.249 534.585 94.862 L 550.527 10.393 C 551.609 4.63 547.943 0 542.298 0 L 512.673 0 Z M 569.152 0 C 563.503 0 558.122 4.642 557.113 10.39 L 542.397 94.859 C 541.444 100.249 545.011 104.53 550.428 104.53 L 572.135 104.53 C 577.577 104.53 582.853 100.246 583.865 94.859 L 599.807 10.39 C 600.904 4.642 597.214 0 591.581 0 L 569.152 0 Z M 523.883 12.039 L 529.955 12.039 C 533.837 12.039 536.487 15.149 535.817 19.034 L 522.852 87.453 C 522.176 91.334 518.403 94.552 514.518 94.552 L 508.551 94.552 L 523.883 12.039 Z M 576.868 12.039 L 577.279 12.039 C 581.161 12.039 583.709 15.149 583.039 19.034 L 570.696 87.453 C 570.023 91.322 566.445 94.552 562.569 94.552 C 558.681 94.552 557.062 91.334 557.729 87.453 L 569.972 19.034 L 570.071 18.724 L 570.176 18.415 L 570.276 18.003 L 570.378 17.694 L 570.483 17.282 L 570.582 16.973 L 570.687 16.663 L 570.889 16.357 L 570.991 16.047 L 571.201 15.738 L 571.303 15.431 L 571.508 15.122 L 571.718 14.914 L 571.919 14.608 L 572.129 14.299 L 572.436 14.091 L 572.643 13.884 L 572.851 13.677 L 573.154 13.469 L 573.466 13.265 L 573.674 13.061 L 573.98 12.853 L 574.29 12.751 L 574.599 12.544 L 574.806 12.442 L 575.215 12.337 L 575.522 12.237 L 575.831 12.237 L 576.137 12.132 L 576.552 12.132 L 576.868 12.039 Z M 127.058 12.451 L 133.44 12.451 C 134.84 12.451 137.811 15.657 137.556 17.081 L 132.1 42.905 C 131.847 44.242 130.045 47.324 128.711 47.324 L 120.868 47.45 L 119.55 46.813 C 119.55 46.813 118.606 45.591 118.928 44.86 L 125.102 13.274 C 125.67 12.808 126.361 12.451 127.058 12.451 Z M 209.054 12.451 L 209.16 12.451 L 209.262 12.451 L 209.364 12.451 L 209.466 12.451 L 215.436 12.451 C 216.839 12.451 219.826 15.657 219.549 17.081 L 214.093 42.799 C 213.856 44.148 210.506 47.327 209.16 47.327 L 203.499 47.327 C 202.33 47.327 201.525 46.558 201.441 45.479 C 201.441 45.308 201.417 45.062 201.441 44.86 L 207.513 13.274 L 207.612 13.172 L 207.717 13.073 L 207.919 12.968 L 208.021 12.968 L 208.123 12.865 L 208.225 12.763 L 208.327 12.763 L 208.429 12.661 L 208.535 12.661 L 208.739 12.559 L 208.841 12.559 L 208.94 12.559 L 209.042 12.559 L 209.042 12.457 L 209.054 12.457 L 209.054 12.451 Z M 0 113.583 L 0 147.846 L 587.257 147.846 L 587.257 113.583 L 0 113.583 Z M 431.704 117.185 L 431.803 117.185 L 431.903 117.185 L 432.008 117.185 L 432.107 117.185 L 432.209 117.185 L 436.737 117.185 C 437.96 117.185 438.834 118.162 438.588 119.448 L 437.455 125.21 L 434.679 125.21 L 435.292 121.404 C 435.433 120.544 434.925 119.859 434.06 119.859 C 433.201 119.859 432.35 120.541 432.209 121.404 L 431.698 124.186 C 431.608 124.348 431.866 125.129 432.002 125.213 C 432.383 125.433 436.016 131.454 436.016 131.898 C 436.1 132.121 436.151 132.229 436.115 132.313 C 436.013 133.064 434.982 138.175 434.982 138.175 C 434.763 139.347 433.621 140.332 432.413 140.332 L 428.09 140.332 C 426.891 140.332 426.119 139.347 426.341 138.175 L 427.375 132.313 L 430.355 132.313 L 429.64 136.531 C 429.502 137.388 430.001 138.175 430.869 138.175 C 431.704 138.175 432.591 137.394 432.726 136.531 L 433.342 133.133 C 432.792 131.715 429.15 126.541 428.916 125.312 C 428.757 125.174 428.691 124.432 428.712 123.873 C 428.745 123.263 429.535 119.448 429.535 119.448 L 429.64 119.448 L 429.64 119.345 L 429.64 119.246 L 429.64 119.144 L 429.739 118.937 L 429.739 118.838 L 429.838 118.733 L 429.838 118.63 L 429.941 118.531 L 429.941 118.426 L 430.043 118.327 L 430.148 118.222 L 430.148 118.123 L 430.247 118.123 L 430.352 118.02 L 430.451 117.915 L 430.554 117.816 L 430.554 117.711 L 430.656 117.711 L 430.755 117.612 L 430.854 117.51 L 430.959 117.51 L 431.061 117.408 L 431.163 117.408 L 431.266 117.308 L 431.368 117.308 L 431.575 117.308 L 431.704 117.185 Z M 455.362 117.185 L 459.066 117.185 L 459.58 125.931 L 464.312 117.185 L 468.02 117.185 L 460.406 130.561 L 458.556 140.332 L 455.263 140.332 L 456.912 129.837 L 455.362 117.185 Z M 489.006 117.185 L 489.106 117.185 L 489.211 117.185 L 489.31 117.185 L 489.415 117.185 L 489.514 117.185 L 494.042 117.185 C 495.262 117.185 496.115 118.162 495.893 119.448 L 494.76 125.21 L 491.981 125.21 L 492.6 121.404 C 492.738 120.544 492.236 119.859 491.365 119.859 C 490.506 119.859 489.649 120.541 489.514 121.404 L 489 124.186 C 488.892 124.348 489.139 125.129 489.307 125.213 C 489.67 125.433 493.321 131.454 493.321 131.898 C 493.429 132.121 493.426 132.229 493.426 132.313 C 493.285 133.064 492.396 138.175 492.396 138.175 C 492.173 139.347 491.019 140.332 489.818 140.332 L 485.398 140.332 C 484.199 140.332 483.424 139.347 483.643 138.175 L 484.674 132.313 L 487.66 132.313 L 486.942 136.531 C 486.801 137.391 487.336 138.178 488.174 138.178 C 489.03 138.178 489.857 137.397 490.025 136.531 L 490.641 133.136 C 490.079 131.718 486.456 126.544 486.218 125.315 C 486.062 125.174 485.996 124.435 486.014 123.876 C 486.044 123.263 486.837 119.451 486.837 119.451 L 486.936 119.348 L 486.936 119.249 L 486.936 119.147 L 487.038 118.94 L 487.038 118.838 L 487.141 118.733 L 487.141 118.633 L 487.243 118.531 L 487.243 118.426 L 487.345 118.327 L 487.447 118.222 L 487.447 118.123 L 487.552 118.123 L 487.648 118.02 L 487.751 117.915 L 487.853 117.816 L 487.955 117.711 L 488.057 117.612 L 488.159 117.51 L 488.261 117.51 L 488.366 117.408 L 488.466 117.408 L 488.568 117.308 L 488.667 117.308 L 488.871 117.308 L 489.006 117.185 Z M 512.976 117.185 L 519.875 117.185 L 519.358 119.964 L 517.606 119.964 L 514.007 140.335 L 510.612 140.335 L 514.211 119.964 L 512.463 119.964 L 512.976 117.185 Z M 539.93 117.185 L 546.104 117.185 L 545.588 119.964 L 542.397 119.964 L 540.961 127.268 L 544.25 127.268 L 543.734 129.633 L 540.543 129.633 L 539.209 137.454 L 542.394 137.454 L 541.985 140.332 L 535.399 140.332 L 539.93 117.185 Z M 565.345 117.185 L 569.152 117.185 L 569.765 130.561 L 575.63 117.287 L 579.331 117.185 L 575.428 140.332 L 572.547 140.332 L 574.395 128.092 L 569.248 140.332 L 567.19 140.332 L 566.577 127.779 L 564.312 140.332 L 560.914 140.332 L 565.345 117.185 Z M 12.757 118.011 L 18.829 118.011 L 18.415 120.887 L 15.125 120.887 L 13.788 128.092 L 16.979 128.092 L 16.564 130.564 L 13.271 130.564 L 12.039 138.382 L 15.227 138.382 L 14.713 141.263 L 8.127 141.263 L 12.757 118.011 Z M 41.153 118.011 L 44.034 118.011 L 45.576 130.15 L 47.838 118.011 L 51.236 118.011 L 46.807 141.257 L 43.929 141.257 L 42.796 127.776 L 40.122 141.257 L 36.727 141.257 L 41.153 118.011 Z M 72.018 118.011 L 78.809 118.011 L 78.4 120.887 L 76.648 120.887 L 72.944 141.26 L 69.657 141.26 L 73.253 120.887 L 71.402 120.887 L 72.018 118.011 Z M 101.958 118.011 L 108.13 118.011 L 107.616 120.887 L 104.425 120.887 L 102.986 128.092 L 106.174 128.092 L 105.762 130.564 L 102.574 130.564 L 101.237 138.382 L 104.428 138.382 L 104.016 141.263 L 97.434 141.263 L 101.958 118.011 Z M 130.973 118.011 L 137.556 118.011 C 138.776 118.011 139.548 119.09 139.305 120.373 L 137.763 128.602 C 137.592 129.495 136.024 130.222 135.188 130.561 L 135.396 130.561 L 135.498 130.561 L 135.603 130.561 L 135.603 130.66 L 135.705 130.66 L 135.81 130.66 L 135.909 130.66 L 136.015 130.66 L 136.117 130.763 L 136.219 130.763 L 136.321 130.763 L 136.426 130.763 L 136.426 130.862 L 136.528 130.862 L 136.633 130.862 L 136.633 130.967 L 136.736 130.967 C 136.874 131.216 136.94 131.955 136.94 132.097 C 136.94 132.235 135.29 141.254 135.29 141.254 L 132.307 141.254 C 132.307 141.254 133.902 133.154 133.956 132.821 C 133.99 132.46 133.917 132.025 133.854 131.691 C 133.83 131.442 133.818 131.015 133.545 130.763 L 131.487 130.763 L 129.531 141.254 L 126.547 141.254 L 130.973 118.011 Z M 160.393 118.011 L 167.286 118.011 L 166.877 120.887 L 165.128 120.887 L 161.424 141.26 L 158.131 141.26 L 161.733 120.887 L 159.882 120.887 L 160.393 118.011 Z M 194.654 118.011 L 198.566 118.011 L 197.331 141.257 L 193.419 141.257 L 193.933 135.906 L 191.568 135.906 L 189.612 141.257 L 186.118 141.257 L 194.654 118.011 Z M 222.025 118.011 L 225.005 118.011 L 220.58 141.257 L 217.698 141.257 L 222.025 118.011 Z M 248.567 118.011 L 251.448 118.011 L 252.989 130.15 L 255.258 118.011 L 258.548 118.011 L 254.227 141.257 L 251.244 141.257 L 250.213 127.776 L 247.536 141.257 L 244.144 141.257 L 248.567 118.011 Z M 282.623 118.011 L 286.43 118.011 L 287.043 131.49 L 292.914 118.117 L 296.612 118.117 L 292.703 141.263 L 289.822 141.263 L 291.673 129.02 L 286.526 141.263 L 284.468 141.263 L 283.852 128.714 L 281.592 141.263 L 278.297 141.263 L 282.623 118.011 Z M 319.969 118.011 L 326.038 118.011 L 325.624 120.887 L 322.334 120.887 L 321 128.092 L 324.188 128.092 L 323.773 130.564 L 320.486 130.564 L 319.149 138.382 L 322.436 138.382 L 321.922 141.263 L 315.444 141.263 L 319.969 118.011 Z M 349.801 118.011 L 352.682 118.011 L 354.227 130.15 L 356.489 118.011 L 359.779 118.011 L 355.462 141.257 L 352.58 141.257 L 351.448 127.776 L 348.771 141.257 L 345.375 141.257 L 349.801 118.011 Z M 380.36 118.011 L 387.252 118.011 L 386.739 120.887 L 384.99 120.887 L 381.391 141.26 L 378.095 141.26 L 381.7 120.887 L 379.849 120.887 L 380.36 118.011 Z M 133.749 120.785 C 133.587 120.785 133.452 120.881 133.335 120.992 L 131.998 127.986 C 131.998 128.044 131.998 128.035 131.998 128.092 C 131.998 128.314 132.154 128.5 132.409 128.5 L 133.644 128.5 C 133.95 128.5 134.72 127.884 134.777 127.575 L 135.906 121.812 C 135.96 121.482 135.393 120.782 135.083 120.782 L 133.749 120.785 Z M 194.654 127.779 L 192.493 133.644 L 194.14 133.644 L 194.654 127.779 Z" style="fill: rgb(255, 255, 255);"/>
  </g>
</svg>

<svg xmlns="http://www.w3.org/2000/svg" baseProfile="tiny" viewBox="0 0 264 65"><path d="M29.22 0c-5.64 0-11.13 4.64-12.14 10.39l-4.02 19.96c-.1 2.51.25 5.95 1.03 6.59 1 5.53 19.46 31.17 18.93 35.08-.5 3.91-2.67 15.43-2.67 15.43-.67 3.88-3.32 7-7.2 7a5.76 5.76 0 0 1-5.86-7l3.5-19.14H6.98l-4.6 26.55c-.95 5.39 2.7 9.67 8.12 9.67h19.65c5.45 0 10.63-4.28 11.63-9.67 0 0 5.06-24.8 5.04-26.55-.02-1.76-.51-1.95-.51-1.95 0-2.02-16.43-29.14-18.11-30.15-.72-.42-1.32-3.1-1.34-4.73C26.82 29.87 29 19.03 29 19.03c.67-3.88 4.35-7 8.23-7s5.5 3.12 4.84 7L39.1 36.21h13.88l4.84-25.82C58.92 4.64 55.23 0 49.59 0zm37.86 0L50.62 94.86c-.94 5.39 2.7 9.67 8.13 9.67H78.4c5.44 0 10.72-4.28 11.73-9.67L107.72 0H95.37L78.6 92.19a3.1 3.1 0 0 1-2.88 2.46h-9.77c-1.37 0-2.28-1.12-2.06-2.47L80.25 0zm47.33 0L94.55 104.53h13.17l9.05-47.33h16.77c5.46 0 10.63-4.31 11.63-9.67l7.2-37.14C153.46 4.63 149.78 0 144.14 0zm47.01 0-20.57 104.53h29.63l2.05-12.96h-14.6l5.97-35.3h14.6l2.06-10.9h-14.6l6.47-32.4h14.62L189.1 0zm35.4 0-19.75 104.53h13.16l8.96-47.33h9.36c1.23 1.15 1.38 3.26 1.54 4.32.24 1.54.5 3.5.31 5.04-.17 1.53-7.2 37.97-7.2 37.97h13.17s7.4-39.7 7.4-40.33c.03-.65 0-2.69-.71-3.8-.49-.73-1.31-2.39-2.27-2.99-1.84-1.18-3.91-1.96-3.91-1.96h-.93c3.77-1.48 10.87-3.93 11.63-7.92l7.2-37.14C235.88 4.63 232.19 0 226.55 0zm70.47 0-19.86 104.53h15.13l12.24-60.6 4.84 60.6h13.17L312.67 0h-15.13l-10.29 54.63L280.46 0zm52.26 0L299.7 104.53h13.17L332.72 0zm20.06 0-19.85 104.53h15.23l12.24-60.6 4.84 60.6h13.17L385.09 0h-15.22l-10.19 54.63L352.89 0zm51.04 0-2.47 12.96h8.23l-16.26 91.57h15.03l16.56-91.57h7.92L421.72 0zm36.21 0L406.3 104.53h29.63l2.06-12.96h-14.61l6.07-35.3h14.6l2.06-10.9h-14.6l6.37-32.4h14.61L454.54 0zm33.44 0-19.86 104.53h15.23l12.25-60.6 4.83 60.6h13.17L505.78 0h-15.23l-10.19 54.63L473.57 0zm52.37 0-19.86 104.53h30.04c5.46 0 10.72-4.28 11.74-9.67l15.94-84.47C551.6 4.63 547.94 0 542.3 0zm56.48 0c-5.65 0-11.03 4.64-12.04 10.39L542.4 94.86c-.96 5.39 2.61 9.67 8.03 9.67h21.7c5.45 0 10.72-4.28 11.74-9.67l15.94-84.47C600.9 4.64 597.2 0 591.58 0zm-45.27 12.04h6.08a5.76 5.76 0 0 1 5.86 7l-12.97 68.41c-.67 3.88-4.45 7.1-8.33 7.1h-5.97zm52.99 0h.4c3.9 0 6.44 3.1 5.77 7l-12.34 68.4c-.68 3.87-4.25 7.1-8.13 7.1s-5.5-3.22-4.84-7.1l12.24-68.42.1-.3.1-.32.1-.4.1-.32.11-.4.1-.32.1-.3.2-.31.11-.31.21-.31.1-.3.2-.32.22-.2.2-.31.2-.31.32-.2.2-.22.21-.2.3-.21.32-.2.2-.2.31-.22.31-.1.3-.2.22-.1.4-.11.31-.1h.31l.3-.1h.42zm-449.81.41h6.38c1.4 0 4.37 3.2 4.12 4.63l-5.46 25.83c-.25 1.33-2.06 4.41-3.39 4.41l-7.84.13-1.32-.64s-.94-1.22-.62-1.95l6.17-31.59a3.2 3.2 0 0 1 1.96-.82m82 0h6.38c1.4 0 4.39 3.2 4.1 4.63L214.1 42.8c-.23 1.35-3.58 4.53-4.93 4.53h-5.66c-1.17 0-1.97-.77-2.06-1.85 0-.17-.02-.42 0-.62l6.07-31.59.1-.1.1-.1.2-.1h.11l.1-.1.1-.1h.1l.1-.1h.12l.2-.11h.3v-.1zM0 113.58v34.27h587.26v-34.27zm431.7 3.6h5.04c1.22 0 2.1.98 1.85 2.27l-1.13 5.76h-2.78l.61-3.8c.14-.87-.37-1.55-1.23-1.55s-1.71.68-1.85 1.54l-.51 2.79c-.1.16.17.94.3 1.02.38.22 4.02 6.24 4.02 6.69q.13.31.1.41c-.1.75-1.14 5.87-1.14 5.87a2.7 2.7 0 0 1-2.57 2.15h-4.32c-1.2 0-1.97-.98-1.75-2.16l1.04-5.86h2.98l-.72 4.22c-.14.86.36 1.65 1.23 1.65.83 0 1.72-.79 1.86-1.65l.61-3.4c-.55-1.41-4.19-6.59-4.42-7.82-.16-.14-.23-.88-.2-1.44.02-.6.81-4.42.81-4.42h.11v-.3l.1-.21v-.1l.1-.1v-.11l.1-.1v-.1l.1-.1.1-.1v-.1h.1l.11-.11.1-.1.1-.1v-.1h.1l.1-.1.1-.11h.1l.11-.1h.1l.1-.1h.31zm23.66 0h3.7l.52 8.75 4.73-8.75h3.71l-7.61 13.38-1.85 9.77h-3.3l1.65-10.5zm33.65 0h5.03c1.22 0 2.07.98 1.85 2.27l-1.13 5.76h-2.78l.62-3.8c.14-.87-.36-1.55-1.24-1.55-.85 0-1.71.68-1.85 1.54l-.51 2.79c-.1.16.14.94.3 1.02.37.22 4.02 6.24 4.02 6.69.1.22.1.33.1.41l-1.02 5.87a2.75 2.75 0 0 1-2.58 2.15h-4.42c-1.2 0-1.98-.98-1.76-2.16l1.03-5.86h2.99l-.72 4.22c-.14.86.4 1.65 1.23 1.65.86 0 1.69-.78 1.85-1.65l.62-3.4c-.56-1.41-4.18-6.59-4.42-7.81-.16-.15-.22-.88-.2-1.44.02-.62.82-4.43.82-4.43l.1-.1v-.2l.1-.21v-.1l.1-.1v-.1l.1-.1v-.11l.1-.1.1-.1v-.1h.11l.1-.11.1-.1.1-.1.1-.1.1-.1.1-.11h.11l.1-.1h.1l.1-.1h.31zm23.97 0h6.9l-.52 2.78h-1.75l-3.6 20.38h-3.4l3.6-20.38h-1.75zm26.95 0h6.17l-.51 2.78h-3.2l-1.43 7.3h3.29l-.52 2.37h-3.19l-1.33 7.82h3.18l-.4 2.88h-6.6zm25.42 0h3.8l.62 13.38 5.86-13.27 3.7-.1-3.9 23.14h-2.88l1.85-12.24-5.15 12.24h-2.06l-.61-12.55-2.27 12.55h-3.4zm-552.6.83h6.08l-.41 2.88h-3.3l-1.33 7.2h3.19l-.42 2.47h-3.29l-1.23 7.82h3.19l-.52 2.88H8.13zm28.4 0h2.88l1.55 12.14 2.26-12.14h3.4l-4.43 23.25h-2.88l-1.13-13.48-2.68 13.48h-3.4zm30.87 0h6.79l-.41 2.88h-1.75l-3.7 20.37h-3.3l3.6-20.37H71.4zm29.94 0h6.17l-.51 2.88h-3.2l-1.43 7.2h3.18l-.4 2.47h-3.2l-1.33 7.82h3.19l-.41 2.88h-6.59zm29.01 0h6.59c1.22 0 1.99 1.08 1.75 2.36l-1.55 8.23c-.17.9-1.74 1.62-2.57 1.96h.41v.1h.41l.1.1h.31v.1h.21v.1h.1c.14.26.21 1 .21 1.14s-1.65 9.15-1.65 9.15h-2.98s1.6-8.1 1.65-8.43c.03-.36-.04-.8-.1-1.13-.03-.25-.04-.68-.32-.93h-2.05l-1.96 10.5h-2.98zm29.42 0h6.9l-.41 2.88h-1.75l-3.7 20.37h-3.3l3.6-20.37h-1.85zm34.26 0h3.92l-1.24 23.25h-3.91l.51-5.35h-2.36l-1.96 5.35h-3.5zm27.38 0H225l-4.42 23.25h-2.88zm26.54 0h2.88l1.54 12.14 2.27-12.14h3.29l-4.32 23.25h-2.99l-1.03-13.48-2.67 13.48h-3.4zm34.05 0h3.81l.61 13.48 5.87-13.37h3.7l-3.9 23.14h-2.89l1.85-12.24-5.14 12.24h-2.06l-.62-12.55-2.26 12.55h-3.3zm37.35 0h6.07l-.42 2.88h-3.29l-1.33 7.2h3.19l-.42 2.47h-3.28l-1.34 7.82h3.29l-.52 2.88h-6.48zm29.83 0h2.88l1.55 12.14 2.26-12.14h3.29l-4.32 23.25h-2.88l-1.13-13.48-2.68 13.48h-3.4zm30.56 0h6.9l-.52 2.88h-1.75l-3.6 20.37h-3.3l3.61-20.37h-1.85zm-246.61 2.77c-.16 0-.3.1-.41.21l-1.34 7v.1c0 .22.15.41.4.41h1.24c.31 0 1.08-.62 1.14-.92l1.13-5.77c.05-.33-.52-1.03-.83-1.03zm60.9 7-2.16 5.86h1.65z" style="fill:#fff" transform="scale(.44 .43965)"/></svg>
